static/icon.svg

<svg xmlns="http://www.w3.org/2000/svg" width="128" height="128" viewBox="0 0 128 128"><style>.bg {
			fill: #141414;
		}
		@media (prefers-color-scheme: light) {
			.bg {
				fill: #fbfbfb;
			}
		}</style><path d="M0 0h128v128H0z" class="bg"/><path fill="#86efac" d="M20 20h88v28H20z"/><path fill="#141414" d="M41.53 41h6.63c4.69 0 7.46-2.9 7.46-7.86v-.02c0-4.96-2.77-7.62-7.46-7.62h-6.63Zm4.55-3.62v-8.26h1.43c2.17 0 3.47 1.4 3.47 4v.02c0 2.85-1.19 4.24-3.47 4.24ZM57.39 41h4.56v-4.06l1.21-1.64 3.39 5.7h5.29l-5.34-8.63 5.11-6.87h-4.78l-4.8 6.57h-.08V25.5h-4.56Zm22.24.28c4.15 0 6.84-2.29 6.84-5.8V25.5h-4.55v9.53c0 1.63-.8 2.53-2.28 2.53s-2.28-.9-2.28-2.53V25.5h-4.55v9.98c0 3.53 2.73 5.8 6.82 5.8"/><path fill="#c4b5fd" d="M20 52h88v28H20z"/><path fill="#141414" d="M40.85 73h12.47v-3.61h-7.14v-.09l6.88-8.95V57.5H40.92v3.61h6.84v.08l-6.91 8.95Zm14.41 0h10.93v-3.61h-6.38v-2.46h5.98v-3.35h-5.98v-2.47h6.38V57.5H55.26Zm13.06 0h4.55V57.5h-4.55Zm10.19 0h4.56V61.11h4.08V57.5H74.43v3.61h4.08Z"/><path fill="#fda4af" d="M20 84h27v24H20z"/><path fill="#fcd34d" d="M50 84h28v24H50z"/><path fill="#7dd3fc" d="M81 84h27v24H81z"/></svg>

<svg xmlns="http://www.w3.org/2000/svg" viewBox="0 0 128 128" width="128" height="128">
<style>
  .bg { fill: #141414 }
  @media (prefers-color-scheme: light) { .bg { fill: #fbfbfb } }
</style>
<rect class="bg" width="128" height="128"/>
<rect x="20" y="20" width="88" height="28" fill="#86efac"/>
<path d="M41.53 41L48.16 41C52.85 41 55.62 38.10 55.62 33.14L55.62 33.12C55.62 28.16 52.85 25.50 48.16 25.50L41.53 25.50ZM46.08 37.38L46.08 29.12L47.51 29.12C49.68 29.12 50.98 30.52 50.98 33.12L50.98 33.14C50.98 35.99 49.79 37.38 47.51 37.38ZM57.39 41L61.95 41L61.95 36.94L63.16 35.30L66.55 41L71.84 41L66.50 32.37L71.61 25.50L66.83 25.50L62.03 32.07L61.95 32.07L61.95 25.50L57.39 25.50ZM79.63 41.28C83.78 41.28 86.47 38.99 86.47 35.48L86.47 25.50L81.92 25.50L81.92 35.03C81.92 36.66 81.12 37.56 79.64 37.56C78.16 37.56 77.36 36.66 77.36 35.03L77.36 25.50L72.81 25.50L72.81 35.48C72.81 39.01 75.54 41.28 79.63 41.28Z" fill="#141414"/>
<rect x="20" y="52" width="88" height="28" fill="#c4b5fd"/>
<path d="M40.85 73L53.32 73L53.32 69.39L46.18 69.39L46.18 69.30L53.06 60.35L53.06 57.50L40.92 57.50L40.92 61.11L47.76 61.11L47.76 61.19L40.85 70.14ZM55.26 73L66.19 73L66.19 69.39L59.81 69.39L59.81 66.93L65.79 66.93L65.79 63.58L59.81 63.58L59.81 61.11L66.19 61.11L66.19 57.50L55.26 57.50ZM68.32 73L72.87 73L72.87 57.50L68.32 57.50ZM78.51 73L83.07 73L83.07 61.11L87.15 61.11L87.15 57.50L74.43 57.50L74.43 61.11L78.51 61.11Z" fill="#141414"/>
<rect x="20" y="84" width="27" height="24" fill="#fda4af"/>
<rect x="50" y="84" width="28" height="24" fill="#fcd34d"/>
<rect x="81" y="84" width="27" height="24" fill="#7dd3fc"/>
</svg>
